X: 352
T: Logie of Buchan
%R: waltz
Z: 2014 John Chambers <jc:trillian.mit.edu>
B: Preston "Twenty four Country Dances for the Year 1798" p.156 #2
F: http://www.vwml.org/browse/browse-collections-dance-tune-books/browse-prestons1798# 2014-8-10
M: 3/4
L: 1/4
K: C
(G/F/) |\
E>FG | G<ed | cAA | A2(G/F/) |\
E>FG | G<cd | ecc | c2 |]
(c/d/) |\
e>de | {ef}g2e/d/ | cAB | d2c/d/ |\
e>fe | dcd | e>cA | "D.C."A2 |]
% - - - - - - - - - - - - - - - - - - - - - - - - -
%%begintext align
%% Hands across, back again, lead
%% down the middle up again right
%% and left at top.
%%endtext
% - - - - - - - - - - - - - - - - - - - - - - - - -
